archdroid-icon-theme/Archdroid-Pink/places/scalable/folder-collection-xubuntu-color.svg

<?xml version="1.0" encoding="UTF-8" standalone="no"?>
<svg
   xmlns:dc="http://purl.org/dc/elements/1.1/"
   xmlns:cc="http://creativecommons.org/ns#"
   xmlns:rdf="http://www.w3.org/1999/02/22-rdf-syntax-ns#"
   xmlns:svg="http://www.w3.org/2000/svg"
   xmlns="http://www.w3.org/2000/svg"
   xmlns:sodipodi="http://sodipodi.sourceforge.net/DTD/sodipodi-0.dtd"
   xmlns:inkscape="http://www.inkscape.org/namespaces/inkscape"
   fill="#E91E63"
   width="48"
   height="48"
   viewBox="0 0 48 48"
   id="svg2"
   version="1.1"
   inkscape:version="0.91 r13725"
   sodipodi:docname="folder-collection.svg">
  <metadata
     id="metadata10">
    <rdf:RDF>
      <cc:Work
         rdf:about="">
        <dc:format>image/svg+xml</dc:format>
        <dc:type
           rdf:resource="http://purl.org/dc/dcmitype/StillImage" />
        <dc:title />
      </cc:Work>
    </rdf:RDF>
  </metadata>
  <defs
     id="defs8" />
  <sodipodi:namedview
     pagecolor="#ffffff"
     bordercolor="#666666"
     borderopacity="1"
     objecttolerance="10"
     gridtolerance="10"
     guidetolerance="10"
     inkscape:pageopacity="0"
     inkscape:pageshadow="2"
     inkscape:window-width="1366"
     inkscape:window-height="713"
     id="namedview6"
     showgrid="false"
     inkscape:zoom="6.179518388275623"
     inkscape:cx="18.46499116598509"
     inkscape:cy="23.71017109902778"
     inkscape:window-x="0"
     inkscape:window-y="30"
     inkscape:window-maximized="1"
     inkscape:current-layer="svg2"
     inkscape:snap-bbox="true"
     inkscape:bbox-nodes="true" />
  <path
     d="m 8,12 -4,0 0,28 c 0,2.21 1.79,4 4,4 l 28,0 0,-4 -28,0 0,-28 z"
     id="path4146"
     style="fill:#0044aa;fill-opacity:1" />
  <path
     d="M 16 4 C 13.79 4 12 5.789999999999999 12 8 L 12 32 C 12 34.21 13.79 36 16 36 L 40 36 C 42.21 36 44 34.21 44 32 L 44 8 C 44 5.79 42.21 4 40 4 L 16 4 z M 33.251953125 10 A 0.3997159442724798 0.3985480120947521 0 0 0 33.302734375 10.001953125 C 33.3584470401899 9.998680190662 33.34591347373281 10.000950789071 33.361328125 10.01171875 C 33.3767427762675 10.0224867109291 33.41417437526461 10.0602555599922 33.474609375 10.1328125 C 33.5623926091682 10.23847501282307 33.59055255477212 10.2935651369791 33.607421875 10.384765625 A 0.3997159442724798 0.3985480120947521 0 0 0 33.607421875 10.404296875 C 33.73637902762664 12.38068422787972 33.39016708239042 14.39977750519874 32.904296875 16.322265625 A 0.3997159442724798 0.3985480120947521 0 0 0 32.833984375 16.490234375 C 32.7983437176703 16.71220093796074 32.72097083274491 16.8669400688987 32.599609375 16.951171875 C 32.48746042513885 17.0289861561512 32.43859056648711 17.043651111656 32.40625 17.037109375 C 32.3630414597026 17.028246712786 32.29027228074081 16.9593564795161 32.232421875 16.884765625 A 0.3997159442724798 0.3985480120947521 0 0 0 32.201171875 16.814453125 C 31.89019191411673 15.67983890189691 32.2776867984165 14.47532134044912 32.3984375 13.29296875 A 0.3997159442724798 0.3985480120947521 0 0 0 32.3984375 13.236328125 C 32.64478024108293 12.15659112741077 32.6504828675814 10.9538592722082 33.1953125 10.03515625 C 33.1834278283418 10.0543576439871 33.20347724882499 10.029619920274 33.251953125 10 z M 37.71875 10.93359375 A 0.3745178587668918 0.3734235530113792 0 0 0 37.720703125 10.93359375 C 37.8010328372765 10.92362610686 37.94999137348181 11.0222899690386 37.96484375 11.052734375 C 38.0152585675313 11.1557862269878 38.0117893737865 11.20880769451486 37.955078125 11.345703125 A 0.3745178587668918 0.3734235530113792 0 0 0 37.953125 11.353515625 C 37.1331166371058 13.43845022146952 36.13501347047368 15.58332357906534 34.814453125 17.392578125 A 0.3745178587668918 0.3734235530113792 0 0 0 34.8046875 17.40625 C 34.792517732243 17.4244931553701 34.79959309841401 17.4474657242503 34.791015625 17.46875 C 34.6922613989834 17.61617001310462 34.45207627821732 17.6994804739864 34.3203125 17.671875 C 34.18056646695301 17.6416691895169 34.04553027787502 17.50876489771111 34.041015625 17.2734375 C 34.1386215036158 15.78491219197554 35.0665787603773 14.50774669421248 35.794921875 13.220703125 A 0.3745178587668918 0.3734235530113792 0 0 0 35.8359375 13.111328125 C 36.41433216680561 12.32361207920146 36.84566948859846 11.34315257460675 37.681640625 10.9375 A 0.3745178587668918 0.3734235530113792 0 0 0 37.71875 10.93359375 z M 24.734375 11.53515625 C 24.86988103979486 11.5104380604647 25.00932024677428 11.5205973163579 25.134765625 11.53515625 C 25.55164927448604 11.5641941231434 25.8961008203407 11.75081707620302 26.138671875 12.03515625 C 26.54680258846379 12.51308924416725 26.73978097391823 13.22135167039255 26.865234375 13.9609375 C 26.9893880733911 14.69745955401134 27.02496991276851 15.48758132613557 27.041015625 16.0859375 L 27.041015625 16.810546875 C 27.04087923644603 16.8279855977143 27.041015625 16.8463359550348 27.041015625 16.859375 C 27.041015625 16.8928125508924 27.02496991276849 16.9318996268566 27.041015625 16.9609375 C 27.0585856798935 16.9914952618204 27.1115020322999 16.9923269022858 27.140625 17.009765625 C 27.1639715112969 17.0242445645013 27.1667760817247 17.031956484364 27.19140625 17.03515625 C 27.2371365298597 17.0497151836422 27.2825945051156 17.0714585604987 27.3671875 17.0859375 C 27.65308197768441 17.1383336622835 28.1091008558682 17.158780536858 28.595703125 17.234375 C 29.56919648608374 17.38534794210358 30.84390328801192 17.66564682971523 32.15625 18.009765625 C 33.46916633477237 18.35402840973842 34.78588471303927 18.82603170456263 35.841796875 19.509765625 C 36.89376179175187 20.19101972706975 37.68232568305909 21.07309254195287 37.845703125 22.259765625 C 37.94897332892178 22.99586371006463 37.38706077286632 23.73558965810872 36.6171875 24.41015625 C 35.84862997553666 25.08370691630199 34.8436775548047 25.71488523572134 33.759765625 26.30859375 C 32.67628692942563 26.90185429708972 31.54802788150944 27.44006171227772 30.650390625 27.859375 C 30.20155193960494 28.06910363858795 29.80275495027577 28.21378566357848 29.498046875 28.359375 C 27.94709239927366 28.98317731008188 26.20129082751197 29.54000736126933 24.357421875 29.91015625 C 24.284494112908 29.91015625 24.1105434579558 29.953384785138 24.033203125 29.958984375 C 14.64410274988737 30.77026895308807 19.017578125 19.185546875 19.017578125 19.185546875 C 19.01810763350364 19.18554687499999 19.2489358864242 18.63794689483858 19.34375 18.310546875 C 19.3626839404331 18.236392306394 19.39453125 18.0373319045509 19.39453125 17.9609375 C 19.3814539945314 17.8838231481811 19.3322807449671 17.73995821887141 19.29296875 17.5859375 C 19.2012193674604 17.22058026030868 19.0606437939497 16.77396747796593 18.96875 16.234375 C 18.8783324115756 15.6936066081629 18.8193581108751 15.07388479124428 18.943359375 14.53515625 C 19.0667589249162 14.00457111229838 19.38373664046663 13.49621212056417 19.9453125 13.185546875 C 20.16263562646316 13.0775547847973 20.41285606762375 13.0335413377164 20.623046875 13.0859375 C 20.84081125854955 13.1396935626788 21.06694249200724 13.30051724985731 21.25 13.4609375 C 21.61625942739575 13.78208197802094 21.94577055880531 14.24664320825485 22.2265625 14.759765625 C 22.50632751561194 15.27085619056646 22.75947287004223 15.81602212664961 22.955078125 16.259765625 C 23.053093358166 16.48258930445177 23.1082038520088 16.65898997566796 23.1796875 16.810546875 C 23.211778924463 16.8774219767848 23.235481320466 16.9719283963585 23.255859375 17.009765625 C 23.2734294298934 17.0461629591054 23.255859375 17.04683539457 23.255859375 17.03515625 C 23.2748735439943 17.0657140118204 23.32634578229991 17.0684987772858 23.35546875 17.0859375 C 23.3364545810057 17.0713785663579 23.41773001517491 17.1202866854987 23.48046875 17.134765625 C 23.5725069553597 17.1580439199993 23.64140702425921 17.191146464862 23.73046875 17.185546875 C 23.7756775442122 17.185546875 23.8210783367957 17.1624435977483 23.857421875 17.134765625 C 23.8734675872315 17.134765625 23.84137616276851 17.094656861357 23.857421875 17.0859375 C 23.8866250712614 17.0509800604306 23.90625 17.0533624317856 23.90625 17.009765625 L 23.90625 16.91015625 C 23.8684623476949 16.77780594389588 23.79111249669927 16.58420567554424 23.681640625 16.185546875 C 23.55429382987491 15.72477262405391 23.43714944811441 15.12027339354699 23.35546875 14.53515625 C 23.2737720061734 13.94887119199598 23.23292764568822 13.37634640288422 23.35546875 12.861328125 C 23.47581159173609 12.35794899461535 23.75372040453597 11.92701015864174 24.2578125 11.736328125 C 24.40033853889618 11.6810521736443 24.60018470860814 11.5600344278171 24.734375 11.53515625 z "
     id="path4195"
     style="fill:#0044aa;fill-opacity:1" />
</svg>

<svg xmlns="http://www.w3.org/2000/svg" fill="#E91E63" viewBox="0 0 48 48"><g fill="#04a"><path d="m8 12h-4v28c0 2.21 1.79 4 4 4h28v-4h-28v-28"/><path d="m16 4c-2.21 0-4 1.79-4 4v24c0 2.21 1.79 4 4 4h24c2.21 0 4-1.79 4-4v-24c0-2.21-1.79-4-4-4h-24m17.251953 6a.399716 .398548 0 0 0 .050781 .001953c.056-.003.043-.001.059.01.015.011.053.049.113.121.088.106.116.161.133.252a.399716 .398548 0 0 0 0 .019531c.129 1.976-.217 3.995-.703 5.918a.399716 .398548 0 0 0 -.070313 .167969c-.036.222-.113.377-.234.461-.112.078-.161.092-.193.086-.043-.009-.116-.078-.174-.152a.399716 .398548 0 0 0 -.03125 -.070313c-.311-1.135.077-2.339.197-3.521a.399716 .398548 0 0 0 0 -.056641c.246-1.08.252-2.282.797-3.201-.012.019.008-.006.057-.035m4.466797.933594a.374518 .373424 0 0 0 .001953 0c.08-.01.229.089.244.119.05.103.047.156-.01.293a.374518 .373424 0 0 0 -.001953 .007813c-.82 2.085-1.818 4.23-3.139 6.04a.374518 .373424 0 0 0 -.009766 .013672c-.012.018-.005.041-.014.063-.099.147-.339.231-.471.203-.14-.03-.275-.163-.279-.398.098-1.489 1.026-2.766 1.754-4.053a.374518 .373424 0 0 0 .041016 -.109375c.578-.788 1.01-1.768 1.846-2.174a.374518 .373424 0 0 0 .037109 -.003906m-12.984.602c.136-.025.275-.015.4 0 .417.029.761.216 1 .5.408.478.601 1.186.727 1.926.124.737.16 1.527.176 2.125v.725c0 .017 0 .036 0 .049 0 .033-.016.073 0 .102.018.031.07.031.1.049.023.014.026.022.051.025.046.015.091.036.176.051.286.052.742.073 1.229.148.973.151 2.248.431 3.561.775 1.313.344 2.63.816 3.686 1.5 1.052.681 1.841 1.563 2 2.75.103.736-.459 1.476-1.229 2.15-.769.674-1.774 1.305-2.857 1.898-1.083.593-2.212 1.131-3.109 1.551-.449.21-.848.354-1.152.5-1.551.624-3.297 1.181-5.141 1.551-.073 0-.247.043-.324.049-9.389.811-5.02-10.773-5.02-10.773.001 0 .231-.548.326-.875.019-.074.051-.273.051-.35-.013-.077-.062-.221-.102-.375-.092-.365-.232-.812-.324-1.352-.09-.541-.149-1.16-.025-1.699.123-.531.44-1.039 1-1.35.217-.108.468-.152.678-.1.218.054.444.215.627.375.366.321.696.786.977 1.299.28.511.533 1.056.729 1.5.098.223.153.399.225.551.032.067.056.161.076.199.018.036 0 .037 0 .025.019.031.07.033.1.051-.019-.015.062.034.125.049.092.023.161.056.25.051.045 0 .091-.023.127-.051.016 0-.016-.04 0-.049.029-.035.049-.033.049-.076v-.1c-.038-.132-.115-.326-.225-.725-.127-.461-.244-1.065-.326-1.65-.082-.586-.123-1.159 0-1.674.12-.503.398-.934.902-1.125.143-.055.342-.176.477-.201"/></g></svg>
